images/icons/48/icon-plugins-light.svg

<svg xmlns="http://www.w3.org/2000/svg" width="48" height="48" viewBox="0 0 48 48">
  <g fill="#FFF">
    <path d="M24,48 C47.815,48 48,37.255 48,24 C48,10.745 47.815,0 24,0 C0.185,0 0,10.745 0,24 C0,37.255 0.185,48 24,48 Z" opacity=".3"/>
    <path d="M24,8.72727273 C32.4348944,8.72727273 39.2727273,15.5651056 39.2727273,24 C39.2727273,32.4348944 32.4348944,39.2727273 24,39.2727273 C15.5651056,39.2727273 8.72727273,32.4348944 8.72727273,24 C8.72727273,15.5651056 15.5651056,8.72727273 24,8.72727273 Z M24.9672727,27.0545455 L23.0327273,27.0545455 C22.7440727,27.0545455 22.5213964,27.2590778 22.4797476,27.5271142 L22.4727273,27.6186182 L22.4727273,33.1636364 L25.5272727,33.1636364 L25.5272727,27.6186182 C25.5272727,27.3019636 25.2768,27.0545455 24.9672727,27.0545455 Z M18.8731818,17.8909091 L16.9086364,17.8909091 C16.6377407,17.8909091 16.4130072,18.088553 16.3707695,18.3475073 L16.3636364,18.4359091 L16.3636364,23.455 C16.3636364,23.7258957 16.5612803,23.9506291 16.8202345,23.9928669 L16.9086364,24 L18.8731818,24 C19.1440775,24 19.368811,23.8023561 19.4110487,23.5434018 L19.4181818,23.455 L19.4181818,18.4359091 C19.4181818,18.1349139 19.174177,17.8909091 18.8731818,17.8909091 Z M31.0913636,17.8909091 L29.1268182,17.8909091 C28.825823,17.8909091 28.5818182,18.1349139 28.5818182,18.4359091 L28.5818182,18.4359091 L28.5818182,23.455 C28.5818182,23.7559952 28.825823,24 29.1268182,24 L29.1268182,24 L31.0913636,24 C31.3923588,24 31.6363636,23.7559952 31.6363636,23.455 L31.6363636,23.455 L31.6363636,18.4359091 C31.6363636,18.1349139 31.3923588,17.8909091 31.0913636,17.8909091 L31.0913636,17.8909091 Z"/>
  </g>
</svg>

<svg xmlns="http://www.w3.org/2000/svg" width="48" height="48"><g fill="#FFF"><path d="M24 48c23.815 0 24-10.745 24-24S47.815 0 24 0 0 10.745 0 24s.185 24 24 24z" opacity=".3"/><path d="M24 8.727c8.435 0 15.273 6.838 15.273 15.273 0 8.435-6.838 15.273-15.273 15.273-8.435 0-15.273-6.838-15.273-15.273 0-8.435 6.838-15.273 15.273-15.273zm.967 18.328h-1.934a.552.552 0 00-.553.472l-.007.092v5.545h3.054v-5.545a.559.559 0 00-.56-.564zm-6.094-9.164H16.91a.545.545 0 00-.538.457l-.007.088v5.019c0 .27.197.496.456.538l.089.007h1.964c.271 0 .496-.198.538-.457l.007-.088v-5.02a.545.545 0 00-.545-.544zm12.218 0h-1.964a.545.545 0 00-.545.545v5.019c0 .301.244.545.545.545h1.964a.545.545 0 00.545-.545v-5.02a.545.545 0 00-.545-.544z"/></g></svg>
